!!!!SEGMENT: pl-sa--159-a-iv-9--004_luna-georgius--vesperae-ex-d-nisi-dominus.krn
!!!cenid: 17xx:462
!!!COM: Luna, Georgius
!!!COM-rismID: pe41010079
!!!CDT:
!!!CNT:
!!!OPR: Vesperae ex D
!!!OTL: Nisi Dominus
!!!OMV: 004
!!!PDT:
!!!AGN: Sacred; Vespers
!!!SMS-siglum: PL-SA
!!!SMS-shelfmark: 159/A IV 9
!!!SMS-shelfwork: 001-004 M
!!!SMS-variant:
!!!SMS-altvar:
!!!NIFC-rismSourceID: 1001070706
!!!NIFC-rismChildID: 1001070706
!!!NIFC-islandoraID: none
!!!URL-pdf-islandora:
!!!URL-scan: https://bc.bdsandomierz.pl/dlibra/publication/1545/edition/1513/content @EN{Scan in the Sandomierz Diocese Digital Library} @PL{Skany w portalu Cyfrowa Biblioteka Diecezjalna w Sandomierzu}
!!!ONB-nifc: UWAGA: części Vesperae: Dixit Dominus, Laudate pueri, Laetatus sum, Nisi Dominus, Lauda Jerusalem, Magnificat. UWAGA: brak partii clarino 1, clarino 2
!!!AIN: 1 empty 1 tenor 2 violn 1 vox
!!!key:
**kern	**dynam	**kern	**dynam	**kern	**dynam	**kern	**text	**dynam	**kern	**text
*part5	*part5	*part4	*part4	*part3	*part3	*part2	*part2	*part2	*part1	*part1
*	*	*group2	*	*group2	*	*group1	*	*	*group1	*
*staff5	*	*staff4	*	*staff3	*	*staff2	*staff2	*	*staff1	*staff1
*Iempty	*	*Ivioln	*	*Ivioln	*	*Itenor	*	*	*Ivox	*
*I"Fondameto	*	*I"Violino Secundo	*	*I"Violino Primo	*	*I"Tenore	*	*	*I"Canto	*
*I'Fund.	*	*I'V-no II	*	*I'V-no I	*	*I'T.	*	*	*I'C.	*
*clefF4	*	*clefG2	*	*clefG2	*	*clefC4	*	*	*clefC1	*
*Trd0c0	*	*	*	*	*	*	*	*	*	*
*k[f#c#]	*	*k[f#c#]	*	*k[f#c#]	*	*k[f#c#]	*	*	*k[f#c#]	*
*b:	*	*b:	*	*b:	*	*b:	*	*	*b:	*
*M2/2	*	*M2/2	*	*M2/2	*	*M2/2	*	*	*M2/2	*
*met(c|)	*	*met(c|)	*	*met(c|)	*	*met(c|)	*	*	*met(c|)	*
=1	=1	=1	=1	=1	=1	=1	=1	=1	=1	=1
*2\right	*	*	*	*	*	*2\right	*	*	*2\right	*
!LO:TX:a:t=allabreve	!	!LO:TX:a:t=allabeve	!	!LO:TX:a:t=allabreve	!	!LO:TX:a:t=allabreve	!	!	!LO:TX:a:t=allabreve	!
!LO:TX:a:t=P:problem=przy kluczu jeden krzyżyk nad drugim	!	!	!	!LO:TX:a:t=P:problem=przy kluczu jeden krzyżyk nad drugim	!	!LO:TX:a:t=P:problem=przy kluczu jeden krzyżyk nad drugim	!	!	!LO:TX:a:t=P:problem=przy kluczu jeden krzyżyk nad drugim, cis oktawę wyżej	!
2d\	.	4r	.	4dd\	.	2A\	Ni-	.	2ff#\	Ni-
.	.	4ff#\	.	4ddd\	.	.	.	.	.	.
.	.	.	.	8qqgg/	.	.	.	.	.	.
2d\	.	4a\	.	4ff#\	.	2A\	-ſi	.	2ff#\	-si
.	.	4ff#\	.	8ee\L	.	.	.	.	.	.
.	.	.	.	8dd\J	.	.	.	.	.	.
=2	=2	=2	=2	=2	=2	=2	=2	=2	=2	=2
2A\	.	4r	.	4cc#\	.	4c#\	Do-	.	4ee\	Do-
.	.	4cc#\	.	4ee\	.	4c#\	-mi-	.	4ee\	-mi-
.	.	.	.	8qqdd/	.	.	.	.	.	.
!	!	!	!	!	!	!	!	!	!LO:SIC:l:s=-nus:v	!
2A\	.	4ee\	.	4cc#\	.	4c#\	-nuſ	.	4ee\	-ni
.	.	4cc#\	.	8b\L	.	4c#\	ae-	.	4ee\	ae-
.	.	.	.	8a\J	.	.	.	.	.	.
=3	=3	=3	=3	=3	=3	=3	=3	=3	=3	=3
2B\	.	4r	.	4dd\	.	4F#/	-di-	.	4dd\	-di-
.	.	4dd\	.	4ff#\	.	4F#/	-fi-	.	4dd\	-fi-
.	.	.	.	8qqee/	.	.	.	.	.	.
2B\	.	4f#/	.	4dd\	.	4F#/	-ca-	.	4dd\	-ca-
.	.	4dd\	.	8cc#\L	.	8F#/	-ve-	.	8dd\	-ve-
.	.	.	.	8b\J	.	8F#/	-rit	.	8dd\	-rit
=4	=4	=4	=4	=4	=4	=4	=4	=4	=4	=4
2F#\	.	4r	.	4a#X/	.	2A#X\	do-	.	2cc#\	do-
.	.	4a#X\	.	4cc#/	.	.	.	.	.	.
.	.	.	.	8qqb/	.	.	.	.	.	.
2F#\	.	4cc#\	.	4a#X/	.	4A#\	-mum	.	4cc#\	-mum
.	.	4a#\	.	8g#X/L	.	4A#\	in	.	4cc#\	in
.	.	.	.	8f#/J	.	.	.	.	.	.
=5	=5	=5	=5	=5	=5	=5	=5	=5	=5	=5
2G\	.	4r	.	4b\	.	4d\	Va-	.	4b\	Va-
.	.	4b\	.	4dd\	.	8d\	-num	.	8b\	-num
.	.	.	.	.	.	8d\	la-	.	8b\	la-
.	.	.	.	8qqcc#/	.	.	.	.	.	.
2G\	.	4d/	.	4b\	.	4d\	-bo-	.	4b\	-bo-
.	.	4b\	.	8an/L	.	4d\	-ra-	.	4b\	-ra-
.	.	.	.	8gn/J	.	.	.	.	.	.
=6	=6	=6	=6	=6	=6	=6	=6	=6	=6	=6
2D\	.	4r	.	4f#/	.	4d\	-ve-	.	4a\	-ve-
.	.	4f#/	.	4a/	.	4d\	-runt	.	4a\	-runt
.	.	.	.	8qqg/	.	.	.	.	.	.
2D\	.	4a/	.	4f#/	.	4f#\	qui	.	4a\	qui
.	.	4f#/	.	8e/L	.	4f#\	ae-	.	4a\	ae-
.	.	.	.	8d/J	.	.	.	.	.	.
=7	=7	=7	=7	=7	=7	=7	=7	=7	=7	=7
2G\	.	2d/	.	4b\	.	4g\	-di-	.	4b\	-di-
.	.	.	.	4bb\	.	8g\	-fi-	.	8ee\	-fi-
.	.	.	.	.	.	8g\	-cant	.	8ee\	-cant
.	.	.	.	8qqdd/	.	8qqf#/	.	.	8qqdd/	.
*	*	*	*	*2\right	*	*	*	*	*	*
2A\	.	2g/	.	2cc#\	.	2e\	e-	.	2cc#\	e-
=8	=8	=8	=8	=8	=8	=8	=8	=8	=8	=8
4D\	.	4f#/	.	4dd\	.	2f#\	-am	.	2dd\	-am
4E\	.	4ff#\	.	4ddd\	.	.	.	.	.	.
*	*	*2\right	*	*	*	*	*	*	*	*
4F#\	.	2ff#\	.	2ddd\	.	2r	.	.	2r	.
4G#X\	.	.	.	.	.	.	.	.	.	.
!	!	!	!	!	!	!	!	!	!LO:LB:g=original	!
=9	=9	=9	=9	=9	=9	=9	=9	=9	=9	=9
2A\	.	4ee\	.	4ccc#\	.	2e\	Ni-	.	2cc#\	Ni-
.	.	4cc#\	.	4ee\	.	.	.	.	.	.
.	.	.	.	8qqdd/	.	.	.	.	.	.
2A\	.	4e/	.	4cc#\	.	2e\	-ſi	.	2cc#\	-si
.	.	4cc#\	.	8b\L	.	.	.	.	.	.
.	.	.	.	8a\J	.	.	.	.	.	.
=10	=10	=10	=10	=10	=10	=10	=10	=10	=10	=10
2E\	.	4r	.	4g#X/	.	4G#X/	Do-	.	4b\	Do-
.	.	4g#X/	.	4b/	.	8G#/	-mi-	.	8b\	-mi-
.	.	.	.	.	.	8G#/	-nuſ	.	8b\	-nuſ
.	.	.	.	8qqa/	.	.	.	.	.	.
!	!	!	!	!	!	!LO:LB:g=orignal	!	!	!	!
2E\	.	4b/	.	4g#/	.	4G#/	cuſ-	.	4b\	cuſ-
.	.	4g#/	.	8f#/L	.	4G#/	-to-	.	4b\	-to-
.	.	.	.	8e/J	.	.	.	.	.	.
!	!	!	!	!LO:LB:g=original	!	!	!	!	!	!
=11	=11	=11	=11	=11	=11	=11	=11	=11	=11	=11
2F#\	.	4r	.	4a\	.	4c#\	-di-	.	4a\	-di-
.	.	4a/	.	4cc#\	.	8c#\	-e-	.	8a\	-e-
.	.	.	.	.	.	8c#\	-rit	.	8a\	-rit
.	.	.	.	8qqb/	.	.	.	.	.	.
2F#\	.	4c#/	.	4a/	.	4c#\	Ci-	.	4a\	ci-
.	.	4a/	.	8g#X/L	.	4c#\	-vi-	.	4a\	-vi-
.	.	.	.	8f#/J	.	.	.	.	.	.
=12	=12	=12	=12	=12	=12	=12	=12	=12	=12	=12
2C#\	.	4r	.	4e#X/	.	4e#X\	-ta-	.	4g#X\	-ta-
!	!	!	!	!LO:SIC:s=4g#:v	!	!	!	!	!	!
.	.	4e#X/	.	4g/	.	4e#\	-tem	.	4g#\	-tem
.	.	.	.	8qqf#/	.	.	.	.	.	.
2C#\	.	4g#X/	.	4e#/	.	4e#\	fru-	.	4g#\	fruſ-
!	!	!	!	!	!	!	!	!	!LO:SIC:l:s=-tra:v	!
.	.	4e#/	.	8d/L	.	4e#\	-sta	.	4g#\	-ta
.	.	.	.	8c#/J	.	.	.	.	.	.
=13	=13	=13	=13	=13	=13	=13	=13	=13	=13	=13
2D\	.	4r	.	4f#/	.	4A\	Vi-	.	4f#/	Vi-
.	.	4f#/	.	4a/	.	8A\	-gi-	.	8f#/	-gi-
.	.	.	.	.	.	8A\	-lat	.	8f#/	-lat
!	!	!	!	!	!	!LO:TX:a:t=P:problem=poprawiona 8 na 4	!	!	!	!
.	.	.	.	8qqg/	.	.	.	.	.	.
2D\	.	4A/	.	4f#/	.	4A\	qui	.	4f#/	qui
.	.	4f#/	.	8en/L	.	4A\	cuſ-	.	4f#/	cuſ-
.	.	.	.	8d/J	.	.	.	.	.	.
!	!	!LO:LB:g=original	!	!	!	!	!	!	!	!
=14	=14	=14	=14	=14	=14	=14	=14	=14	=14	=14
2AA/	.	4r	.	4c#/	.	2c#\	-to-	.	2e/	-to-
.	.	4c#/	.	4ee\	.	.	.	.	.	.
.	.	.	.	8qqdd/	.	.	.	.	.	.
2C#/	.	4e/	.	4cc#\	.	2e\	-dit	.	2a\	-dit
.	.	4c#/	.	8b\L	.	.	.	.	.	.
.	.	.	.	8a\J	.	.	.	.	.	.
=15	=15	=15	=15	=15	=15	=15	=15	=15	=15	=15
2D\	.	2a\	.	4ff#\	.	2d\	e-	.	2f#/	e-
.	.	.	.	4f#/	.	.	.	.	.	.
.	.	.	.	8qqa/	.	.	.	.	.	.
*	*	*2\right	*	*	*	*	*	*	*	*
!	!	!LO:TX:a:t=P:global:problem=niejednoznaczny zapis ozdobnika [przyjęto tryl]	!	!	!	!	!	!	!	!
2E\	.	2bT\	.	2g#X/	.	2B\	.	.	2g#X\	.
!LO:LB:g=original	!	!	!	!	!	!	!	!	!	!
=16	=16	=16	=16	=16	=16	=16	=16	=16	=16	=16
4AA/	.	4cc#\	.	4a/	.	2c#\	-am	.	2a\	-am
8BB/L	.	8dd\L	.	4ggn\	.	.	.	.	.	.
8AA/J	.	8cc#\J	.	.	.	.	.	.	.	.
4BB/	.	4dd\	.	2gg\	.	(4d\	e-	.	2gg\	e-
4C#/	.	4ee\	.	.	.	4e\)	.	.	.	.
=17	=17	=17	=17	=17	=17	=17	=17	=17	=17	=17
!	!	!	!	!LO:N:vis=16	!	!	!	!	!	!
4D\	.	8a\L	.	8ff#\L	.	4d\	-am	.	4ff#\	-am
!	!	!	!	!LO:N:vis=16	!	!	!	!	!	!
.	.	8a\	.	8ff#\	.	.	.	.	.	.
!	!	!	!	!LO:N:vis=16	!	!	!	!	!	!
4D\	.	8a\	.	8ff#\	.	4A\	Va-	.	4ff#\	Va-
!	!	!	!	!LO:N:vis=16	!	!	!	!	!	!
.	.	8a\J	.	8ff#\J	.	.	.	.	.	.
4F#\	.	8a\L	.	8ff#\L	.	4A\	-num	.	4ff#\	-num
.	.	8a\	.	8ff#\	.	.	.	.	.	.
4G\	.	8a\	.	8ff#\	.	4A\	eſt	.	4ff#\	eſt
.	.	8a\J	.	8ff#\J	.	.	.	.	.	.
!	!	!	!	!	!	!	!	!	!LO:PB:g=original	!
=18	=18	=18	=18	=18	=18	=18	=18	=18	=18	=18
4A\	.	8cc#\L	.	8ee\L	.	4c#\	Vo-	.	4ee\	vo-
.	.	8cc#\	.	8ee\	.	.	.	.	.	.
4B\	.	8cc#\	.	8ee\	.	4c#\	-biſ	.	4ee\	-biſ
.	.	8cc#\J	.	8ee\J	.	.	.	.	.	.
4c#\	.	8cc#\L	.	8ee\L	.	4c#\	an-	.	4ee\	an-
.	.	8cc#\	.	8ee\	.	.	.	.	.	.
4A\	.	8cc#\	.	8ee\	.	4c#\	-te	.	4ee\	-te
.	.	8cc#\J	.	8ee\J	.	.	.	.	.	.
=19	=19	=19	=19	=19	=19	=19	=19	=19	=19	=19
4B\	.	8dd\L	.	8gg#X\L	.	4B\	lu-	.	4dd\	lu-
.	.	8dd\	.	8gg#\	.	.	.	.	.	.
4A\	.	8dd\	.	8gg#\	.	4B\	-cem	.	4dd\	-cem
.	.	8dd\J	.	8gg#\J	.	.	.	.	.	.
!	!	!	!	!	!	!LO:LB:g=original	!	!	!	!
4G#X\	.	8dd\L	.	8gg#\L	.	4B\	ſur-	.	4dd\	ſur-
.	.	8dd\	.	8gg#\	.	.	.	.	.	.
4E\	.	8dd\	.	8gg#\	.	4B\	-ge-	.	4dd\	-ge-
.	.	8dd\J	.	8gg#\J	.	.	.	.	.	.
=20	=20	=20	=20	=20	=20	=20	=20	=20	=20	=20
4A\	.	4cc#\	.	4aa\	.	4E/	-re	.	4cc#\	-re
8AA/L	.	8cc#\L	.	4ee\	.	8E/	ſur-	.	8cc#\	ſur-
8BB/J	.	8dd\J	.	.	.	8E/	-gi-	.	8dd\	-gi-
4C#/	.	4ee\	.	4aa\	.	4A\	-te	.	4ee\	-te
4D/	.	4ff#\	.	4aa\	.	4A\	posſ-	.	4ff#\	poſt-
=21	=21	=21	=21	=21	=21	=21	=21	=21	=21	=21
2E\	.	4b\	.	4gg#X\	.	4G#X\	-quam	.	4b\	-quam
.	.	4dd\	.	4ff#\	.	4d\	ſe-	.	4ff#\	ſe-
2G#X\	.	4cc#\	.	4ee\	.	4c#\	-de-	.	4ee\	-de-
.	.	4b\	.	4dd\	.	4B\	-ri-	.	4dd\	-ri-
!	!	!	!	!LO:LB:g=original	!	!	!	!	!	!
=22	=22	=22	=22	=22	=22	=22	=22	=22	=22	=22
4A\	.	4a\	.	4cc#\	.	4A\	-tiſ	.	4cc#\	-tiſ
8AA/L	.	8cc#\L	.	4ee\	.	4E/	qui	.	8cc#\L	qui
8BB/J	.	8dd\J	.	.	.	.	.	.	8dd\J	.
4C#/	.	4ee\	.	4aa\	.	4A\	man-	.	4ee\	man-
4D/	.	4ff#\	.	4aa\	.	4A\	-du-	.	4ff#\	-du-
=23	=23	=23	=23	=23	=23	=23	=23	=23	=23	=23
!	!	!	!	!LO:TX:a:t=P:global:problem=niejednoznaczny zapis ozdobnika [przyjęto tryl]	!	!	!	!	!	!
4E\	.	2bT\	.	2gg#Xt\	.	2G#X\	-ca-	.	2b\	-ca-
4D\	.	.	.	.	.	.	.	.	.	.
4C#\	.	4cc#\	.	4aa\	.	4A\	-tiſ	.	4cc#\	-tiſ
4D\	.	4b\	.	4dd\	.	4B\	pa-	.	4dd\	pa-
=24	=24	=24	=24	=24	=24	=24	=24	=24	=24	=24
4E\	.	2a/	.	2cc#\	.	4A\	-nem	.	4cc#\	-nem
4F#\	.	.	.	.	.	4A\	do-	.	4cc#\	do-
!	!	!	!	!	!	!LO:SIC:l:s=-lo-:v	!	!	!	!
4D\	.	2g#X/	.	2bT\	.	2G#X\	-to-	.	2b\	-lo-
4E\	.	.	.	.	.	.	.	.	.	.
=25	=25	=25	=25	=25	=25	=25	=25	=25	=25	=25
2AA/	.	2a/	.	2a/	.	2A\	-riſ	.	2cc#\	-ris
!&colon;global	!LO:DY:a	!	!	!	!	!	!	!	!	!
4C#/	p	2r	.	2r	.	2A\	cum	.	2r	.
4AA/	.	.	.	.	.	.	.	.	.	.
=26	=26	=26	=26	=26	=26	=26	=26	=26	=26	=26
.	.	.	.	.	.	8qqc#/	.	.	.	.
4D\	.	0r	.	0r	.	4B\	de-	.	00r	.
4E\	.	.	.	.	.	8A\L	-de-	.	.	.
.	.	.	.	.	.	8G#X\J	.	.	.	.
4C#\	.	.	.	.	.	4A\	-rit	.	.	.
4C#\	.	.	.	.	.	4A\	di-	.	.	.
=27	=27	=27	=27	=27	=27	=27	=27	=27	=27	=27
2D\	.	.	.	.	.	4f#\	-lec-	.	.	.
.	.	.	.	.	.	4f#\	-tiſ	.	.	.
2E\	.	.	.	.	.	4e\	su-	.	.	.
.	.	.	.	.	.	4d\	-iſ	.	.	.
!	!	!LO:LB:g=original	!	!	!	!	!	!	!	!
=28	=28	=28	=28	=28	=28	=28	=28	=28	=28	=28
2AA/	.	4r	.	4r	.	4d\	ſom-	.	.	.
.	.	8a\L	.	8cc#\L	.	4c#\	-num	.	.	.
.	.	8cc#\J	.	8aa\J	.	.	.	.	.	.
4AA/	.	4cc#\	.	4ee\	.	2r	.	.	.	.
4BB/	.	4b\	.	4dd\	.	.	.	.	.	.
!	!	!	!	!	!	!LO:LB:g=original	!	!	!	!
=29	=29	=29	=29	=29	=29	=29	=29	=29	=29	=29
2C#/	.	4a\	.	4cc#\	.	2A\	Ec-	.	.	.
.	.	4r	.	4r	.	.	.	.	.	.
2AA/	.	2r	.	2r	.	4gn\	-ce	.	.	.
!	!	!	!	!	!	!LO:SIC:l:s=hae-:v	!	!	!	!
.	.	.	.	.	.	4g\	he-	.	.	.
=30	=30	=30	=30	=30	=30	=30	=30	=30	=30	=30
2D\	.	00r	.	00r	.	4.f#\	-re-	.	00r	.
.	.	.	.	.	.	8e\	-di-	.	.	.
2F#\	.	.	.	.	.	4e\	-taſ	.	.	.
.	.	.	.	.	.	4d\	.	.	.	.
!LO:LB:g=original	!	!	!	!	!	!	!	!	!	!
=31	=31	=31	=31	=31	=31	=31	=31	=31	=31	=31
2C#/	.	.	.	.	.	4.A\	Do-	.	.	.
.	.	.	.	.	.	8A\	-mi-	.	.	.
2AA/	.	.	.	.	.	2g\	-ni	.	.	.
=32	=32	=32	=32	=32	=32	=32	=32	=32	=32	=32
2D\	.	.	.	.	.	4.f#\	fi-	.	.	.
.	.	.	.	.	.	8f#\	-li-	.	.	.
2F#\	.	.	.	.	.	4e\	-i	.	.	.
.	.	.	.	.	.	4d\	.	.	.	.
=33	=33	=33	=33	=33	=33	=33	=33	=33	=33	=33
4F#\	.	.	.	.	.	2A\	mer-	.	.	.
4E\	.	.	.	.	.	.	.	.	.	.
4F#\	.	.	.	.	.	2d\	-ceſ	.	.	.
4D\	.	.	.	.	.	.	.	.	.	.
=34	=34	=34	=34	=34	=34	=34	=34	=34	=34	=34
2G\	.	0r	.	0r	.	(4B\	fru-	.	0r	.
.	.	.	.	.	.	4c#\)	.	.	.	.
4F#\	.	.	.	.	.	(4d\	-ctuſ	.	.	.
4G\	.	.	.	.	.	4e\)	.	.	.	.
=35	=35	=35	=35	=35	=35	=35	=35	=35	=35	=35
2A\	.	.	.	.	.	2d\	Ven-	.	.	.
!	!	!	!	!	!	!LO:TX:a:t=P:global:problem=niejednoznaczny zapis ozdobnika [przyjęto tryl]	!	!	!	!
2AA/	.	.	.	.	.	2eT\	.	.	.	.
=36	=36	=36	=36	=36	=36	=36	=36	=36	=36	=36
!.	!LO:DY:a	!	!	!	!	!	!	!	!	!
2D\	f	4r	.	4r	.	4d\	-triſ	.	4r	.
.	.	4ff#\	.	4aa\	.	4A\	ſi-	.	4ff#\	Si-
2D\	.	4f#/	.	4aa\	.	4A\	-cut	.	4ff#\	-cut
.	.	4ff#\	.	4ddd\	.	4A\	sa-	.	4ff#\	Sa-
!	!	!	!	!	!	!	!	!	!LO:LB:g=original	!
=37	=37	=37	=37	=37	=37	=37	=37	=37	=37	=37
2A\	.	2ee\	.	2ccc#\	.	2c#\	-git-	.	2ee\	-git-
!	!	!	!	!	!	!LO:SIC:l:s=-tae:v	!	!	!LO:SIC:l:s=-tae:v	!
2A\	.	2ee\	.	2ccc#\	.	4c#\	-te	.	4ee\	-te
.	.	.	.	.	.	4c#\	in	.	4ee\	in
=38	=38	=38	=38	=38	=38	=38	=38	=38	=38	=38
2B\	.	4r	.	2ff#\	.	2F#/	ma-	.	2dd\	ma-
.	.	4dd\	.	.	.	.	.	.	.	.
2B\	.	4d/	.	4gg\	.	4F#/	-nu	.	4dd\	-nu
.	.	4dd\	.	4bb\	.	4F#/	po-	.	4dd\	po-
!	!	!	!	!	!	!LO:LB:g=original	!	!	!	!
=39	=39	=39	=39	=39	=39	=39	=39	=39	=39	=39
4F#\	.	4cc#\	.	4aa#X\	.	4A#X\	-ten-	.	4cc#\	-ten-
4F#\	.	4cc#\	.	4aa#\	.	4A#\	-tiſ	.	4cc#\	-tiſ
4F#\	.	8c#/L	.	8f#/L	.	4A#\	i-	.	4cc#\	i-
.	.	8c#/	.	8f#/	.	.	.	.	.	.
4F#\	.	8f#/	.	8a#X/	.	4A#\	-ta	.	4cc#\	-ta
.	.	8f#/J	.	8a#/J	.	.	.	.	.	.
=40	=40	=40	=40	=40	=40	=40	=40	=40	=40	=40
!	!	!	!	!	!	!LO:SIC:s=4a#:v	!	!	!	!
4F#\	.	8a#X\L	.	8cc#\L	.	4A\	fi-	.	4cc#\	fi-
.	.	8a#\	.	8cc#\	.	.	.	.	.	.
!	!	!	!	!	!	!LO:SIC:s=8a#:v	!	!	!	!
4F#\	.	8cc#\	.	8ee\	.	8A\	-li-	.	8cc#\	-li-
!	!	!	!	!	!	!LO:SIC:s=8a#:v	!	!	!	!
.	.	8cc#\J	.	8ee\J	.	8A\	-i	.	8cc#\	-i
!	!	!	!	!	!	!LO:SIC:s=4a#:v	!	!	!	!
4F#\	.	4ee\	.	4ggn\	.	4A\	ex-	.	4cc#\	ex-
!	!	!	!	!	!	!LO:SIC:s=4a#:v	!	!	!	!
4F#\	.	4ee\	.	4gg\	.	4A\	-cuſ-	.	4cc#\	-cuſ-
=41	=41	=41	=41	=41	=41	=41	=41	=41	=41	=41
!	!	!LO:TX:a:t=P:problem=mixed beam	!	!LO:TX:a:t=P:problem=mixed beam	!	!LO:SIC:s=4a#:v	!	!	!	!
4F#\	.	8ee\L	.	8gg\L	.	4A\	-so-	.	4cc#\	-so-
.	.	8c#/J	.	8a#X/J	.	.	.	.	.	.
!	!	!	!	!	!	!LO:SIC:s=4a#:v	!	!	!	!
4F#\	.	4c#/	.	4a#/	.	4A\	-rum	.	4cc#\	-rum
!	!	!	!	!	!	!LO:SIC:s=4a#:v	!	!	!	!
4F#\	.	8c#/L	.	8f#/L	.	4A\	fi-	.	4cc#\	i-
.	.	8c#/	.	8f#/	.	.	.	.	.	.
!	!	!	!	!	!	!LO:SIC:s=4a#:v	!	!	!	!
4F#\	.	8f#/	.	8a#X/	.	4A\	-li	.	4cc#\	-ta
.	.	8f#/J	.	8a#/J	.	.	.	.	.	.
!	!	!	!	!LO:LB:g=original	!	!	!	!	!	!
=42	=42	=42	=42	=42	=42	=42	=42	=42	=42	=42
!	!	!	!	!	!	!LO:SIC:s=4a#:v	!	!	!	!
4F#\	.	8a#X\L	.	8cc#\L	.	4A\	fi-	.	4cc#\	fi-
.	.	8a#\	.	8cc#\	.	.	.	.	.	.
!	!	!	!	!	!	!LO:SIC:s=8a#:v	!	!	!	!
4F#\	.	8cc#\	.	8ee\	.	8A\	-li-	.	8cc#\	-li-
!	!	!	!	!	!	!LO:SIC:s=8a#:v	!	!	!	!
.	.	8cc#\J	.	8ee\J	.	8A\	-i	.	8cc#\	-i
!	!	!	!	!	!	!LO:SIC:s=4a#:v	!	!	!	!
4F#\	.	4ee\	.	4gg\	.	4A\	ex-	.	4cc#\	ex-
!	!	!	!	!	!	!LO:SIC:s=4a#:v	!	!	!	!
4F#\	.	4ee\	.	4gg\	.	4A\	-cuſ-	.	4cc#\	-cuſ-
=43	=43	=43	=43	=43	=43	=43	=43	=43	=43	=43
!	!	!	!	!	!	!LO:SIC:s=2a#:v	!	!	!	!
4F#\	.	4ee\	.	2gg\	.	2A\	-so-	.	2cc#\	-so-
4A#X\	.	4cc#\	.	.	.	.	.	.	.	.
4B\	.	4dd\	.	8ff#\L	.	4F#/	.	.	(4dd\	.
.	.	.	.	8dd\	.	.	.	.	.	.
4E\	.	4cc#\	.	8ee\	.	4c#\	.	.	4ee\)	.
.	.	.	.	8cc#\J	.	.	.	.	.	.
=44	=44	=44	=44	=44	=44	=44	=44	=44	=44	=44
4F#\	.	2b\	.	2dd\	.	2B\	.	.	2dd\	.
4E\	.	.	.	.	.	.	.	.	.	.
4F#\	.	2a#Xt\	.	2cc#t\	.	2A#X\	.	.	2cc#\	.
4FF#/	.	.	.	.	.	.	.	.	.	.
=45	=45	=45	=45	=45	=45	=45	=45	=45	=45	=45
!	!LO:DY:a	!	!	!	!	!	!	!	!LO:TX:a:t=Solo	!
4BB/	p	2b\	.	2b\	.	2B\	-rum	.	2b\	-rum
4C#/	.	.	.	.	.	.	.	.	.	.
4D/	.	2r	.	2r	.	2r	.	.	2b\	Be-
4BB/	.	.	.	.	.	.	.	.	.	.
!	!	!LO:LB:g=original	!	!	!	!	!	!	!LO:LB:g=original	!
=46	=46	=46	=46	=46	=46	=46	=46	=46	=46	=46
2E\	.	00r	.	00r	.	00r	.	.	2gg\	-a-
!LO:TX:a:t=fis	!	!	!	!	!	!	!	!	!	!
2F#\	.	.	.	.	.	.	.	.	2a#X\	-tuſ
!LO:LB:g=original	!	!	!	!	!	!	!	!	!	!
=47	=47	=47	=47	=47	=47	=47	=47	=47	=47	=47
4BB/	.	.	.	.	.	.	.	.	2b\	Vir
4B\	.	.	.	.	.	.	.	.	.	.
4A#X\	.	.	.	.	.	.	.	.	4cc#\	qui
!	!	!	!	!	!	!	!	!	!LO:SIC:l:s=im-:v	!
4F#\	.	.	.	.	.	.	.	.	4ff#\	in-
=48	=48	=48	=48	=48	=48	=48	=48	=48	=48	=48
.	.	.	.	.	.	.	.	.	8qqee/	.
4B\	.	.	.	.	.	.	.	.	4dd\	-ple-
4F#\	.	.	.	.	.	.	.	.	4cc#\	-vit
4A#X\	.	.	.	.	.	.	.	.	4cc#\	de-
4F#\	.	.	.	.	.	.	.	.	4ff#\	-ſi-
=49	=49	=49	=49	=49	=49	=49	=49	=49	=49	=49
.	.	.	.	.	.	.	.	.	8qqff#/	.
4B\	.	.	.	.	.	.	.	.	4ee\	-de-
4F#\	.	.	.	.	.	.	.	.	8cc#\	-ri-
.	.	.	.	.	.	.	.	.	8cc#\	-um
4Gn\	.	.	.	.	.	.	.	.	4b\	Su-
4E\	.	.	.	.	.	.	.	.	(8cc#\	-um
.	.	.	.	.	.	.	.	.	8b\)	ex
=50	=50	=50	=50	=50	=50	=50	=50	=50	=50	=50
2F#\	.	00r	.	00r	.	00r	.	.	4a#X\	ip-
.	.	.	.	.	.	.	.	.	4f#\	-ſis
4F#\	.	.	.	.	.	.	.	.	(4a#\	non
4G#X\	.	.	.	.	.	.	.	.	4b\)	.
=51	=51	=51	=51	=51	=51	=51	=51	=51	=51	=51
4A#X\	.	.	.	.	.	.	.	.	4cc#\	con-
4B\	.	.	.	.	.	.	.	.	4dd\	-fun-
4c#\	.	.	.	.	.	.	.	.	2ee\	-de-
4F#\	.	.	.	.	.	.	.	.	.	.
=52	=52	=52	=52	=52	=52	=52	=52	=52	=52	=52
4B\	.	.	.	.	.	.	.	.	2dd\	-tur
4BB/	.	.	.	.	.	.	.	.	.	.
4F#\	.	.	.	.	.	.	.	.	(4a#X\	cum
4G#X\	.	.	.	.	.	.	.	.	4b\)	.
=53	=53	=53	=53	=53	=53	=53	=53	=53	=53	=53
4A#X\	.	.	.	.	.	.	.	.	(4cc#\	lo-
4B\	.	.	.	.	.	.	.	.	4dd\)	.
4c#\	.	.	.	.	.	.	.	.	2ee\	-que-
4F#\	.	.	.	.	.	.	.	.	.	.
=54	=54	=54	=54	=54	=54	=54	=54	=54	=54	=54
4B\	.	0r	.	0r	.	0r	.	.	4dd\	-tur
4D\	.	.	.	.	.	.	.	.	8ff#\	i-
.	.	.	.	.	.	.	.	.	8ff#\	-ni-
4E\	.	.	.	.	.	.	.	.	4gg\	-mi-
4G\	.	.	.	.	.	.	.	.	4b\	-ciſ
!	!	!	!	!	!	!	!	!	!LO:LB:g=original	!
=55	=55	=55	=55	=55	=55	=55	=55	=55	=55	=55
4F#\	.	.	.	.	.	.	.	.	2a#X\	Su-
4E\	.	.	.	.	.	.	.	.	.	.
4D\	.	.	.	.	.	.	.	.	4b\	-iſ
4E\	.	.	.	.	.	.	.	.	4cc#\	in
=56	=56	=56	=56	=56	=56	=56	=56	=56	=56	=56
4F#\	.	1r	.	1r	.	1r	.	.	1cc#t	por-
4E\	.	.	.	.	.	.	.	.	.	.
4F#\	.	.	.	.	.	.	.	.	.	.
4FF#/	.	.	.	.	.	.	.	.	.	.
=57	=57	=57	=57	=57	=57	=57	=57	=57	=57	=57
!	!	!	!	!LO:TX:a:t=adagio	!	!	!	!	!	!
2BB;</	.	2r;	.	2r;	.	2r;	.	.	2bT\	-ta
!LO:TX:a:t=adagio	!	!LO:TX:a:t=adagio	!	!	!	!LO:TX:a:t=adagio	!	!	!LO:TX:a:t=adagio	!
2BB/	.	2dd\	.	2bb\	.	4B\	Glo-	.	4ee\	Glo-
.	.	.	.	.	.	8B\	-ri-	.	8dd\	-ri-
.	.	.	.	.	.	8B\	-a	.	8dd\	-a
=58	=58	=58	=58	=58	=58	=58	=58	=58	=58	=58
2F#\	.	2dd\	.	2bb\	.	2B\	Pa-	.	(2dd\	Pa-
2FF#/	.	2cc#\	.	2aa#X\	.	2A#X\	.	.	2cc#\)	.
!	!	!	!	!	!	!LO:PB:g=original	!	!	!	!
=59	=59	=59	=59	=59	=59	=59	=59	=59	=59	=59
2BB/	.	2dd\	.	2bb\	.	2B\	-tri	.	2dd\	-tri
2An\	.	2cc#\	.	2ff#\	.	2f#\	et	.	2cc#\	et
=60	=60	=60	=60	=60	=60	=60	=60	=60	=60	=60
1G	.	2b\	.	2ff#\	.	2f#\	fi-	.	2b\	fi-
.	.	2b\	.	2ee\	.	2e\	-li-	.	2b\	-li-
!LO:LB:g=original	!	!	!	!	!	!	!	!	!	!
=61	=61	=61	=61	=61	=61	=61	=61	=61	=61	=61
2F#\	.	2a#X\	.	2ff#\	.	2c#\	-o	.	2a#X\	-o
2D\	.	2b\	.	2ff#\	.	[2B\	et	.	2ff#\	et
=62	=62	=62	=62	=62	=62	=62	=62	=62	=62	=62
2E\	.	2b\	.	2gg\	.	2B\]	.	.	2gg\	Spi-
2E\	.	2b\	.	2gg\	.	2B\	Spi-	.	2gg\	-ri-
=63	=63	=63	=63	=63	=63	=63	=63	=63	=63	=63
4F#\	.	2a#X\	.	2cc#\	.	2A#X\	-ri-	.	2cc#\	-tu-
4E\	.	.	.	.	.	.	.	.	.	.
4D\	.	4b\	.	4dd\	.	4B\	-tu-	.	(4dd\	-i
4E\	.	4cc#\	.	4ee\	.	4c#\	-i	.	4ee\)	.
=64	=64	=64	=64	=64	=64	=64	=64	=64	=64	=64
2F#\	.	2b\	.	2dd\	.	2B\	Sanc-	.	(2dd\	Sanc-
2FF#/	.	2a#X\	.	2cc#t\	.	2A#X\	.	.	2cc#\)	.
=65	=65	=65	=65	=65	=65	=65	=65	=65	=65	=65
2BB/	.	2b\	.	2dd\	.	2B\	-to	.	2b\	-to
2AA/	.	2cc#\	.	2ff#\	.	2c#\	Sanc-	.	2ff#\	Sanc-
!	!	!	!	!LO:LB:g=original	!	!	!	!	!	!
=66	=66	=66	=66	=66	=66	=66	=66	=66	=66	=66
1GG	.	1dd	.	1bb	.	1B	.	.	1ee	.
=67	=67	=67	=67	=67	=67	=67	=67	=67	=67	=67
1FF#;	.	1cc#;	.	1aa#X;	.	1c#;	-to	.	1ff#	-to
!	!	!	!	!	!	!	!	!	!LO:LB:g=original	!
=68	=68	=68	=68	=68	=68	=68	=68	=68	=68	=68
!LO:TX:a:t=allo	!	!	!	!LO:TX:a:t=allo	!	!LO:TX:a:t=Allo	!	!	!LO:TX:a:t=allo	!
2d\	.	4r	.	4dd\	.	2A\	Si-	.	2ff#\	Si-
.	.	4ff#\	.	4ddd\	.	.	.	.	.	.
.	.	.	.	8qqgg/	.	.	.	.	.	.
2d\	.	4f#/	.	4ff#\	.	2A\	-cut	.	2ff#\	-cut
.	.	4ff#\	.	8ee\L	.	.	.	.	.	.
.	.	.	.	8dd\J	.	.	.	.	.	.
=69	=69	=69	=69	=69	=69	=69	=69	=69	=69	=69
2A\	.	4r	.	4cc#\	.	2c#\	e-	.	2ee\	e-
.	.	4cc#\	.	4ee\	.	.	.	.	.	.
.	.	.	.	8qqdd/	.	.	.	.	.	.
2A\	.	4ee\	.	4cc#\	.	2c#\	-rat	.	2ee\	-rat
.	.	4cc#\	.	8b\L	.	.	.	.	.	.
.	.	.	.	8a\J	.	.	.	.	.	.
=70	=70	=70	=70	=70	=70	=70	=70	=70	=70	=70
2B\	.	4r	.	4dd\	.	2F#/	in	.	2dd\	in
.	.	4dd\	.	4ff#\	.	.	.	.	.	.
.	.	.	.	8qqee/	.	.	.	.	.	.
2B\	.	4f#/	.	4dd\	.	2F#/	prin-	.	2dd\	prin-
.	.	4dd\	.	8cc#\L	.	.	.	.	.	.
.	.	.	.	8b\J	.	.	.	.	.	.
!	!	!LO:LB:g=original	!	!	!	!	!	!	!	!
=71	=71	=71	=71	=71	=71	=71	=71	=71	=71	=71
2F#\	.	4r	.	4a#X/	.	4A#X/	-ci-	.	4cc#\	-ci-
.	.	4a#X\	.	4cc#/	.	4A#/	-pi-	.	4cc#\	-pi-
.	.	.	.	8qqb/	.	.	.	.	.	.
2F#\	.	4cc#\	.	4a#X/	.	2A#/	-o	.	2cc#\	-o
.	.	4a#\	.	8g#X/L	.	.	.	.	.	.
.	.	.	.	8f#/J	.	.	.	.	.	.
=72	=72	=72	=72	=72	=72	=72	=72	=72	=72	=72
2G\	.	4r	.	4b\	.	2d\	et	.	2b\	et
.	.	4b\	.	4dd\	.	.	.	.	.	.
.	.	.	.	8qqccn/	.	.	.	.	.	.
2G\	.	4d/	.	4b\	.	4d\	nunc	.	4b\	nunc
.	.	4b\	.	8an/L	.	4d\	et	.	4b\	et
.	.	.	.	8gn/J	.	.	.	.	.	.
=73	=73	=73	=73	=73	=73	=73	=73	=73	=73	=73
!	!	!	!	!	!	!	!	!	!LO:SIC:l:s=Sem-:v	!
2D\	.	4r	.	4f#/	.	2d\	Sem-	.	2a\	Saem-
.	.	4f#/	.	4a/	.	.	.	.	.	.
.	.	.	.	8qqg/	.	.	.	.	.	.
2D\	.	4an/	.	4f#/	.	2f#\	-per	.	2a\	-per
.	.	4f#/	.	8e/L	.	.	.	.	.	.
.	.	.	.	8d/J	.	.	.	.	.	.
!	!	!	!	!	!	!LO:LB:g=original	!	!	!	!
=74	=74	=74	=74	=74	=74	=74	=74	=74	=74	=74
2G\	.	2d/	.	4b\	.	4g\	nunc	.	4b\	nunc
.	.	.	.	4bb\	.	4g\	et	.	4ee\	et
.	.	.	.	8qqdd/	.	8qqf#/	.	.	8qqdd/	.
2G\	.	2g/	.	2cc#\	.	2e\	Sem-	.	2cc#\	Sem-
=75	=75	=75	=75	=75	=75	=75	=75	=75	=75	=75
!	!	!	!LO:DY:a	!	!LO:DY:a	!	!	!	!	!
2D\	.	4f#/	p	4dd\	p	2f#\	-per	.	2dd\	-per
.	.	4ff#\	.	4ddd\	.	.	.	.	.	.
.	.	.	.	8qqgg/	.	.	.	.	.	.
!	!	!	!	!	!	!	!	!LO:DY:a	!	!
2d\	.	4a\	.	4ff#\	.	4A\	et	p	4ff#\	et
.	.	4ryy	.	8ee\L	.	4A\	in	.	4ff#\	in
.	.	.	.	8dd\J	.	.	.	.	.	.
!LO:LB:g=original	!	!	!	!	!	!	!	!	!	!
=76	=76	=76	=76	=76	=76	=76	=76	=76	=76	=76
2A\	.	4r	.	4cc#\	.	2c#\	Sae-	.	2ee\	Sae-
.	.	4cc#\	.	4ee\	.	.	.	.	.	.
.	.	.	.	8qqdd/	.	.	.	.	.	.
2A\	.	4ee\	.	4cc#\	.	4c#\	-cu-	.	4ee\	-cu-
.	.	4cc#\	.	8b\L	.	4c#\	-la	.	4ee\	-la
.	.	.	.	8a\J	.	.	.	.	.	.
!	!	!	!	!LO:LB:g=original	!	!	!	!	!	!
=77	=77	=77	=77	=77	=77	=77	=77	=77	=77	=77
2B\	.	4r	.	4dd\	.	2F#/	Sae-	.	2dd\	Sae-
.	.	4dd\	.	4ff#\	.	.	.	.	.	.
.	.	.	.	8qqee/	.	.	.	.	.	.
2B\	.	4f#/	.	4dd\	.	2F#/	-cu-	.	2dd\	-cu-
.	.	4dd\	.	8cc#\L	.	.	.	.	.	.
.	.	.	.	8b\J	.	.	.	.	.	.
=78	=78	=78	=78	=78	=78	=78	=78	=78	=78	=78
2F#\	.	4r	.	4a#X/	.	2A#X\	-lo-	.	2cc#\	-lo-
.	.	4a#X\	.	4cc#/	.	.	.	.	.	.
.	.	.	.	8qqb/	.	.	.	.	.	.
2F#\	.	4cc#\	.	4a#X/	.	2A#\	-rum	.	2cc#\	-rum
.	.	4a#\	.	8g#X/L	.	.	.	.	.	.
.	.	.	.	8f#/J	.	.	.	.	.	.
!	!	!	!	!	!	!	!	!	!LO:LB:g=original	!
=79	=79	=79	=79	=79	=79	=79	=79	=79	=79	=79
2G\	.	4r	.	4b\	.	2d\	Sae-	.	2b\	Sae-
.	.	4b\	.	4dd\	.	.	.	.	.	.
.	.	.	.	8qqccn/	.	.	.	.	.	.
2G\	.	4d/	.	4b\	.	2d\	-cu-	.	2b\	-cu-
.	.	4b\	.	8a\L	.	.	.	.	.	.
.	.	.	.	8g\J	.	.	.	.	.	.
=80	=80	=80	=80	=80	=80	=80	=80	=80	=80	=80
2D\	.	4r	.	4f#/	.	2d\	-lo-	.	2a\	-lo-
.	.	4f#/	.	4a/	.	.	.	.	.	.
.	.	.	.	8qqg/	.	.	.	.	.	.
2D\	.	4an/	.	4f#/	.	2f#\	-rum	.	2a\	-rum
.	.	4f#/	.	8e/L	.	.	.	.	.	.
.	.	.	.	8d/J	.	.	.	.	.	.
=81	=81	=81	=81	=81	=81	=81	=81	=81	=81	=81
2G\	.	2d/	.	4b\	.	4g\	a-	.	4b\	a-
.	.	.	.	4bb\	.	4g\	-men	.	4ee\	-men
.	.	.	.	8qqdd/	.	.	.	.	8qqdd/	.
2G\	.	2g/	.	2cc#\	.	2e\	a-	.	2cc#\	a-
=82	=82	=82	=82	=82	=82	=82	=82	=82	=82	=82
!	!	!	!	!	!LO:DY:a	!	!	!	!	!
2D\	.	2f#/	.	2dd/	f	2f#\	-men	.	2dd\	-men
!	!LO:DY:a	!	!LO:DY:a	!	!	!	!	!LO:DY:a	!	!
2A\	f	2ee\	f	2ccc#\	.	2c#\	a-	f	2ee\	a-
=83	=83	=83	=83	=83	=83	=83	=83	=83	=83	=83
2D\	.	2ff#\	.	2ddd\	.	2d\	-men	.	2ff#\	-men
2r	.	2r	.	2r	.	2r	.	.	2r	.
==	==	==	==	==	==	==	==	==	==	==
*-	*-	*-	*-	*-	*-	*-	*-	*-	*-	*-
!!!system-decoration: [g1][g2]s5
!!!RDF**kern: > = above
!!!RDF**kern: < = below
!!!RDF**dynam: f = "for"
!!!RDF**dynam: p = "pia"
!!!ENC: Marta Lawrence
!!!END: 2020-09-10
!!!ENC: Andrzej Gręziak
!!!END: 2020-05-15
!!!YEC: Copyright 2022 Narodowy Instytut Fryderyka Chopina (https://polishscores.org)
!!!YEM: License CC-BY-4.0 (https://creativecommons.org/licenses/by/4.0)
